!!!COM: Scriabin, Alexander
!!!OTL: Danse languide
!!!OPR: 4 Morceaux
!!!OPS: 51
!!!ONM: 4
!!!ODT: 1906
!!!AGN: Dance
**kern	**kern
*staff2	*staff1
*Ipiano	*Ipiano
*clefF4	*clefG2
*k[f#]	*k[f#]
*G:	*G:
*M4/4	*M4/4
*	*^
8.r	8.raa	2fn
16E-X 16d-X	[16b [16gg	.
8g	8.bL] 8.gg]	.
8r	.	.
.	16bJk	.
=1	=1	=1
8.r	8.raa	2g-X
16AA-X 16G-X	[16cc [16ddn	.
8c	8.ccL] 8.dd]	.
8r	.	.
.	16g-Jk	.
8.r	8.raa	2fn
16E-X 16d-X	[16b [16ggn	.
8gn	8.bL] 8.gg]	.
8r	.	.
.	16bJk	.
=2	=2	=2
8.r	8.raa	2g-X
16AA-X 16G-X	[16cc [16ddn	.
8c	8.ccL] 8.dd]	.
8r	.	.
.	16g-Jk	.
8.r	8.raa	4..cc
16AA- 16G-	[16g- [16ee-X	.
8c	8.g-L] 8.ee-]	.
8r	.	.
.	16g-Jk	16cc
=3	=3	=3
8.r	8.raa	4..b
16D 16c	16f# [16een	.
8f#	8.eeL]	.
8r	.	.
.	16f#Jk	16b
8.r	8.raa	4..a#X
16D 16c	16f# [16ee	.
8f#	8.eeL]	.
8r	.	.
.	16f#Jk	16a#
=4	=4	=4
8.r	8.raa	4..dd
16GG 16D	16d [16b	.
8B	8.bL]	.
8r	.	.
.	16dJk	16f#
8.r	8.raa	2fn
16E-X 16d-X	[16b [16gg	.
8g	8.bL] 8.gg]	.
8r	.	.
.	16bJk	.
=5	=5	=5
8.r	8.raa	2g-X
16AA-X 16G-X	[16cc [16ddn	.
8c	8.ccL] 8.dd]	.
8r	.	.
.	16g-Jk	.
8.r	8.raa	2gn
16Fn 16e-X	[16cc#X [16aa	.
8a	8.cc#L] 8.aa]	.
8r	.	.
.	16cc#Jk	.
=6	=6	=6
8.r	8.raa	2a-X
16BB-X 16A-X	[16dd [16een	.
8d	8.ddL] 8.ee]	.
8r	.	.
.	16a-Jk	.
8.r	8.raa	4..dd
16BB- 16A-	[16a- [16ffn	.
8d	8.a-L] 8.ff]	.
8r	.	.
.	16a-Jk	16dd
=7	=7	=7
8.r	8.raa	2dd
16EE-X 16BB-X	[16g [16gg	.
8G 8d	8.gL] 8.gg]	.
8r	.	.
.	16gJk	.
8.r	8.raa	4..f#X
16AAn 16G	16c#X [16bn	.
8c#X	8.bL]	.
8r	.	.
.	16c#Jk	16e#X
=8	=8	=8
8.r	8.raa	4..a
16DD 16AA	[16A [16f#	.
8F#	8.AL] 8.f#]	.
8r	.	.
.	16AJk	16A
8.r	8.raa	4..B-X
16DD 16BB-X	[16Fn [16d [16fn	.
8D	8.FL] 8.d] 8.f]	.
8r	.	.
.	16AJk	16A
=9	=9	=9
8.r	2raa	8.dL
16EE 16BBn	.	16G#XJk
8D	.	8.f#XL
8r	.	.
.	.	16fnJk
8.r	8.raa	8.eL
16D 16B-X	[16f [16dd [16ffn	[16b-XJk
8d	8.fL] 8.dd] 8.ff]	8.b-L]
8r	.	.
.	16aJk	16aJk
=10	=10	=10
8.r	2raa	8.ddL
16E 16Bn	.	16g#XJk
8d	.	8.ff#XL
8r	.	.
.	.	16eeJk
8.r	8.raa	4..A-X
16CC 16AA-X	[16E-X [16c [16e-X	.
8C	8.E-L] 8.c] 8.e-]	.
8r	.	.
.	16GJk	16G
=11	=11	=11
8.r	2raa	8.cL
16DD 16AAn	.	16F#Jk
8C	.	8.enL
8r	.	.
.	.	16e-XJk
8.r	8.raa	8.dL
16C 16A-X	[16e- [16cc [16ee-X	[16a-XJk
8c	8.e-L] 8.cc] 8.ee-]	8.a-L]
8r	.	.
.	16gJk	16gJk
=12	=12	=12
8.r	2raa	8.ccL
16D 16An	.	16f#Jk
8c	.	8.eenL
8r	.	.
.	.	16f#Jk
8.r	8.raa	2fn
16E-X 16d-X	[16b [16gg	.
8g	8.bL] 8.gg]	.
8r	.	.
.	16bJk	.
=13	=13	=13
8.r	8.raa	2g-X
16AA-X 16G-X	[16cc [16ddn	.
8c	8.ccL] 8.dd]	.
8r	.	.
.	16g-Jk	.
8.r	8.raa	2fn
16E-X 16d-X	[16b [16ggn	.
8gn	8.bL] 8.gg]	.
8r	.	.
.	16bJk	.
=14	=14	=14
8.r	8.raa	2g-X
16AA-X 16G-X	[16cc [16ddn	.
8c	8.ccL] 8.dd]	.
8r	.	.
.	16g-Jk	.
8.r	8.raa	4..cc
16AA- 16G-	[16g- [16ee-X	.
8c	8.g-L] 8.ee-]	.
8r	.	.
.	16g-Jk	16cc
=15	=15	=15
8.r	8.raa	2cc
16DD-X 16AA-X	[16fn [16ffn	.
4Fn 4c	8.fL] 8.ff]	.
.	16fJk	.
2r	2raa	2rc
=16	=16	=16
2r	2raa	2rc
8.r	8.raa	4..cc
16AA-X 16G-X	16g-X [16ee-X	.
8c	8.ee-L]	.
8r	.	.
.	16g-Jk	16cc
=17	=17	=17
8.r	8.raa	4..b
16D 16c	16f# [16een	.
8f#	8.eeL]	.
8r	.	.
.	16f#Jk	16b
8.r	8.raa	4..a#X
16D 16c	16f# [16ee	.
8f#	8.eeL]	.
8r	.	.
.	16f#Jk	16a#
=18	=18	=18
8.r	4raa	2dd
16GGG 16GG	.	.
4D 4B	4d 4g 4b	.
2r	2raa	2rc
*	*v	*v
==	==
*-	*-
!!!system-decoration: {(*)}
!!!ENC: Bryan Jacob Bell
!!!END: November 2021 to April 2022
!!!PED: Günter Philipp
!!!PTL: Ausgewählte Klavierwerke (Edition Peters)
